static/logos/unsplash-wordmark-color.svg

<svg width="100" height="23" viewBox="0 0 100 23" fill="none" xmlns="http://www.w3.org/2000/svg">
<g clip-path="url(#clip0_1_556)">
<path d="M13.0786 8.44978H19.083V19.083H0V8.44978H6.00437V13.7555H13.0568V8.44978H13.0786ZM33.3843 13.8865C33.3843 15.6987 32.2052 16.7467 30.5677 16.7467C28.9738 16.7467 27.7729 15.6769 27.7729 13.8865V5.32751H25.1092V13.8646C25.1092 17.2271 27.5109 19.3668 30.5895 19.3668C33.69 19.3668 36.0699 17.2271 36.0699 13.8646V5.32751H33.4061V13.8865H33.3843ZM42.9258 9.27948C41.8996 9.27948 40.7642 9.71616 40.1747 10.7205V9.54148H37.6856V19.083H40.262V13.5808C40.262 12.4672 40.917 11.5939 42.0524 11.5939C43.2969 11.5939 43.821 12.4236 43.821 13.4934V19.0611H46.3974V13.0568C46.3755 10.9607 45.2838 9.27948 42.9258 9.27948ZM52.3799 13.2969C52.3799 13.2969 51.5066 13.1223 50.9607 13.0131C50.4148 12.9039 50.0873 12.6201 50.0873 12.1616C50.0873 11.6157 50.5677 11.2227 51.2445 11.2227C52.2052 11.2227 52.5764 11.7031 52.6638 12.2926H54.8908C54.869 10.9825 53.8428 9.27948 51.2882 9.27948C49.2358 9.27948 47.7293 10.6987 47.7293 12.4017C47.7293 13.7336 48.559 14.8472 50.393 15.2402L51.7031 15.524C52.4454 15.6769 52.7293 16.0262 52.7293 16.4629C52.7293 16.9651 52.2707 17.4017 51.4192 17.4017C50.393 17.4017 49.8253 16.8122 49.6943 16.1354H47.4018C47.5328 17.5546 48.559 19.3668 51.4411 19.3668C53.9301 19.3668 55.1965 17.7729 55.1965 16.2227C55.2183 14.8253 54.2576 13.69 52.3799 13.2969ZM66.179 14.2795C66.179 17.1616 64.3668 19.3013 61.6812 19.3013C60.3712 19.3013 59.3886 18.7773 58.9301 18.1441V22.7511H56.3537V9.54148H58.8428V10.7205C59.2795 9.97817 60.3275 9.32314 61.7686 9.32314C64.5633 9.32314 66.179 11.4629 66.179 14.2795ZM63.6463 14.3013C63.6463 12.6201 62.5983 11.6376 61.2882 11.6376C59.9782 11.6376 58.9083 12.6201 58.9083 14.3013C58.9083 15.9825 59.9782 16.9869 61.2882 16.9869C62.5983 16.9869 63.6463 16.0044 63.6463 14.3013ZM78.4935 9.54148H80.9825V19.083H78.4061V17.9039C77.9694 18.6681 76.9651 19.3013 75.655 19.3013C72.9694 19.3013 71.1572 17.1616 71.1572 14.2795C71.1572 11.441 72.7729 9.32314 75.5459 9.32314C76.9869 9.32314 78.0131 9.97817 78.4716 10.7205V9.54148H78.4935ZM78.4498 14.3013C78.4498 12.6201 77.3799 11.6376 76.0699 11.6376C74.7598 11.6376 73.7118 12.6201 73.7118 14.3013C73.7118 16.0044 74.7598 16.9869 76.0699 16.9869C77.3799 16.9869 78.4498 15.9825 78.4498 14.3013ZM67.3799 19.0611H69.9563V5.32751H67.3799V19.0611ZM96.2882 9.27948C95.3712 9.27948 94.3232 9.58515 93.7118 10.3275V5.32751H91.1354V19.0611H93.7118V13.4716C93.7773 12.4236 94.4105 11.6157 95.5022 11.6157C96.7467 11.6157 97.2707 12.4454 97.2707 13.5153V19.083H99.8472V13.0786C99.8253 10.9607 98.7118 9.27948 96.2882 9.27948ZM87.1179 13.2969C87.1179 13.2969 86.2445 13.1223 85.6987 13.0131C85.1528 12.9039 84.8253 12.6201 84.8253 12.1616C84.8253 11.6157 85.3057 11.2227 85.9825 11.2227C86.9432 11.2227 87.3144 11.7031 87.4017 12.2926H89.6288C89.607 10.9825 88.5808 9.27948 86.0262 9.27948C83.9738 9.27948 82.4673 10.6987 82.4673 12.4017C82.4673 13.7336 83.2969 14.8472 85.131 15.2402L86.4411 15.524C87.1834 15.6769 87.4673 16.0262 87.4673 16.4629C87.4673 16.9651 87.0087 17.4017 86.1572 17.4017C85.131 17.4017 84.5633 16.8122 84.4323 16.1354H82.1397C82.2707 17.5546 83.2969 19.3668 86.179 19.3668C88.6681 19.3668 89.9345 17.7729 89.9345 16.2227C89.9563 14.8253 88.9956 13.69 87.1179 13.2969ZM13.0786 0H6.00437V5.32751H13.0568V0H13.0786Z" fill="black"/>
</g>
<defs>
<clipPath id="clip0_1_556">
<rect width="100" height="22.9258" fill="white"/>
</clipPath>
</defs>
</svg>

<svg xmlns="http://www.w3.org/2000/svg" width="278.261" height="64" fill="none" viewBox="0 0 100 23"><g clip-path="url(#a)"><path fill="#000" d="M13.079 8.45h6.004v10.633H0V8.45h6.004v5.306h7.053V8.45h.022Zm20.305 5.437c0 1.812-1.179 2.86-2.816 2.86-1.594 0-2.795-1.07-2.795-2.86v-8.56h-2.664v8.538c0 3.362 2.402 5.502 5.48 5.502 3.101 0 5.48-2.14 5.48-5.502V5.328h-2.663v8.558h-.022Zm9.542-4.608c-1.026 0-2.162.437-2.751 1.441V9.541h-2.49v9.542h2.577v-5.502c0-1.114.655-1.987 1.79-1.987 1.245 0 1.769.83 1.769 1.9v5.567h2.576v-6.004c-.021-2.096-1.113-3.778-3.471-3.778Zm9.454 4.018-1.42-.284c-.545-.11-.873-.393-.873-.851 0-.546.48-.94 1.157-.94.961 0 1.332.481 1.42 1.07h2.227c-.022-1.31-1.048-3.013-3.603-3.013-2.052 0-3.559 1.42-3.559 3.123 0 1.332.83 2.445 2.664 2.838l1.31.284c.742.153 1.026.502 1.026.939 0 .502-.458.939-1.31.939-1.026 0-1.594-.59-1.725-1.267h-2.292c.13 1.42 1.157 3.232 4.04 3.232 2.488 0 3.755-1.594 3.755-3.144.021-1.398-.94-2.533-2.817-2.926Zm13.799.982c0 2.883-1.812 5.022-4.498 5.022-1.31 0-2.292-.524-2.75-1.157v4.607h-2.577V9.541h2.489v1.18c.436-.743 1.484-1.398 2.926-1.398 2.794 0 4.41 2.14 4.41 4.957Zm-2.533.022c0-1.68-1.048-2.663-2.358-2.663s-2.38.982-2.38 2.663c0 1.681 1.07 2.686 2.38 2.686 1.31 0 2.358-.983 2.358-2.686Zm14.847-4.76h2.49v9.542h-2.577v-1.18c-.437.765-1.44 1.398-2.751 1.398-2.686 0-4.498-2.14-4.498-5.021 0-2.839 1.616-4.957 4.389-4.957 1.44 0 2.467.655 2.926 1.397V9.541h.022Zm-.043 4.76c0-1.68-1.07-2.663-2.38-2.663-1.31 0-2.358.982-2.358 2.663 0 1.703 1.048 2.686 2.358 2.686s2.38-1.004 2.38-2.686Zm-11.07 4.76h2.576V5.328H67.38V19.06ZM96.288 9.28c-.917 0-1.965.306-2.576 1.049v-5h-2.577V19.06h2.577v-5.59c.065-1.047.698-1.855 1.79-1.855 1.245 0 1.769.83 1.769 1.9v5.567h2.576v-6.004c-.022-2.118-1.135-3.8-3.559-3.8Zm-9.17 4.018-1.42-.284c-.545-.11-.873-.393-.873-.851 0-.546.48-.94 1.157-.94.961 0 1.332.481 1.42 1.07h2.227c-.022-1.31-1.048-3.013-3.603-3.013-2.052 0-3.559 1.42-3.559 3.123 0 1.332.83 2.445 2.664 2.838l1.31.284c.742.153 1.026.502 1.026.939 0 .502-.458.939-1.31.939-1.026 0-1.594-.59-1.725-1.267H82.14c.13 1.42 1.157 3.232 4.039 3.232 2.49 0 3.755-1.594 3.755-3.144.022-1.398-.938-2.533-2.816-2.926ZM13.078 0H6.005v5.328h7.053V0h.022Z"/></g><defs><clipPath id="a"><path fill="#fff" d="M0 0h100v22.926H0z"/></clipPath></defs></svg>
